src/icons/dapp/tokaen-org.svg

<svg viewBox="0 0 30 30" fill="none" xmlns="http://www.w3.org/2000/svg">
<path d="M25.3845 25.3745H4.61523V27.6822H25.3845V25.3745Z" fill="#812D31"/>
<path d="M27.6922 23.0669H2.30762V25.3746H27.6922V23.0669Z" fill="#812D31"/>
<path d="M27.6922 4.60547H2.30762V6.91316H27.6922V4.60547Z" fill="#812D31"/>
<path d="M25.3845 2.29761H4.61523V4.6053H25.3845V2.29761Z" fill="#812D31"/>
<path d="M30 6.91309H0V23.0669H30V6.91309Z" fill="#812D31"/>
<path d="M9.23054 2.29761H6.92285V27.6822H9.23054V2.29761Z" fill="#BD614D"/>
<path d="M23.0767 4.60547H6.92285V25.3747H23.0767V4.60547Z" fill="#E18A24"/>
<path d="M6.92293 4.60547H4.61523V25.3747H6.92293V4.60547Z" fill="#BD614D"/>
<path d="M6.92293 9.2207H4.61523V23.0669H6.92293V9.2207Z" fill="#F1CD46"/>
<path d="M27.6925 6.91309H25.3848V23.0669H27.6925V6.91309Z" fill="#F1CD46"/>
<path d="M25.3848 4.60547H23.0771V25.3747H25.3848V4.60547Z" fill="#F1CD46"/>
<path d="M25.3848 6.91309H23.0771V23.0669H25.3848V6.91309Z" fill="#BD614D"/>
<path d="M23.0767 23.0669H20.769V25.3746H23.0767V23.0669Z" fill="#BD614D"/>
<path d="M9.23054 23.0669H6.92285V25.3746H9.23054V23.0669Z" fill="#F1CD46"/>
<path d="M23.0767 4.60547H20.769V6.91316H23.0767V4.60547Z" fill="#BD614D"/>
<path d="M4.61531 6.91309H2.30762V23.0669H4.61531V6.91309Z" fill="#BD614D"/>
<path d="M23.077 2.29761H11.5386V4.6053H23.077V2.29761Z" fill="#F1CD46"/>
<path d="M23.0771 25.3745H9.23096V27.6822H23.0771V25.3745Z" fill="#F1CD46"/>
<path fill-rule="evenodd" clip-rule="evenodd" d="M13.8463 13.6054V11.2977H11.5386V8.98999H13.8463H16.154H20.7694V11.2977H16.154V13.6054H18.4617V15.9131H16.154V18.2208H20.7694V20.5285H13.8463V18.2208H11.5386V20.5285H9.23096V18.2208V15.9131V11.2977H11.5386V15.9131H13.8463V13.6054Z" fill="#812D31"/>
<path d="M6.92293 6.91309H4.61523V9.22078H6.92293V6.91309Z" fill="white"/>
<path d="M9.23054 4.60547H6.92285V6.91316H9.23054V4.60547Z" fill="white"/>
<path d="M11.5386 2.29761H9.23096V4.6053H11.5386V2.29761Z" fill="white"/>
<path d="M23.0767 -0.0100098H6.92285V2.29768H23.0767V-0.0100098Z" fill="#812D31"/>
<path d="M23.0767 27.6824H6.92285V29.9901H23.0767V27.6824Z" fill="#812D31"/>
</svg>

<svg viewBox="0 0 30 30" fill="none" xmlns="http://www.w3.org/2000/svg"><path d="M25.384 25.375H4.616v2.307h20.77v-2.307zM27.692 23.067H2.308v2.308h25.384v-2.308zM27.692 4.605H2.308v2.308h25.384V4.605zM25.384 2.298H4.616v2.307h20.77V2.298zM30 6.913H0v16.154h30V6.913z" fill="#812D31"/><path d="M9.23 2.298H6.924v25.384H9.23V2.298z" fill="#BD614D"/><path d="M23.077 4.605H6.923v20.77h16.154V4.605z" fill="#E18A24"/><path d="M6.923 4.605H4.615v20.77h2.308V4.605z" fill="#BD614D"/><path d="M6.923 9.22H4.615v13.847h2.308V9.22zM27.692 6.913h-2.307v16.154h2.307V6.913zM25.385 4.605h-2.308v20.77h2.308V4.605z" fill="#F1CD46"/><path d="M25.385 6.913h-2.308v16.154h2.308V6.913zM23.077 23.067h-2.308v2.308h2.308v-2.308z" fill="#BD614D"/><path d="M9.23 23.067H6.924v2.308H9.23v-2.308z" fill="#F1CD46"/><path d="M23.077 4.605h-2.308v2.308h2.308V4.605zM4.615 6.913H2.308v16.154h2.307V6.913z" fill="#BD614D"/><path d="M23.077 2.298H11.539v2.307h11.538V2.298zM23.077 25.375H9.231v2.307h13.846v-2.307z" fill="#F1CD46"/><path fill-rule="evenodd" clip-rule="evenodd" d="M13.846 13.605v-2.307H11.54V8.99h9.23v2.308h-4.615v2.307h2.308v2.308h-2.308v2.308h4.615v2.308h-6.923V18.22H11.54v2.308H9.23v-9.231h2.308v4.615h2.307v-2.308z" fill="#812D31"/><path d="M6.923 6.913H4.615v2.308h2.308V6.913zM9.23 4.605H6.924v2.308H9.23V4.605zM11.539 2.298H9.23v2.307h2.308V2.298z" fill="#fff"/><path d="M23.077-.01H6.923v2.308h16.154V-.01zM23.077 27.682H6.923v2.308h16.154v-2.308z" fill="#812D31"/></svg>
